X: 13714
T: For The Young
R: polka
M: 2/4
K: Amajor
A>A Af|ec Bc|A>A Af|ec B2|
A>A Af|ec Bc|A/B/c/A/ BA/B/|cA FA:|
|:E>E Ec|BA FA|A/B/c/A/ BA/B/|cA FA|
E>E Ec|BA FA|fe Bc|BA FA:|

